icons/outline/adjustments-up.svg

<!--
category: System
tags: [settings, increase, raise, grow, ascend, elevate, boost, uplift, rise, amplify]
version: "2.10"
unicode: "f80c"
-->
<svg
  xmlns="http://www.w3.org/2000/svg"
  width="24"
  height="24"
  viewBox="0 0 24 24"
  fill="none"
  stroke="currentColor"
  stroke-width="2"
  stroke-linecap="round"
  stroke-linejoin="round"
>
  <path d="M4 10a2 2 0 1 0 4 0a2 2 0 0 0 -4 0m2 -6v4m0 4v8m7.927 -4.538a2 2 0 1 0 -1.927 2.538m0 -14v10m0 4v2m4 -13a2 2 0 1 0 4 0a2 2 0 0 0 -4 0m2 -3v1m0 4v3m1 10v-6m3 3l-3 -3l-3 3" />
</svg>

<!--
category: System
tags: [settings, increase, raise, grow, ascend, elevate, boost, uplift, rise, amplify]
version: "2.10"
unicode: "f80c"
-->
<svg
  xmlns="http://www.w3.org/2000/svg"
  width="24"
  height="24"
  viewBox="0 0 24 24"
  fill="none"
  stroke="currentColor"
  stroke-width="2"
  stroke-linecap="round"
  stroke-linejoin="round"
>
    <path d="M4 10a2 2 0 1 0 4 0a2 2 0 0 0 -4 0M6 4v4M6 12v8M13.927 15.462a2 2 0 1 0 -1.927 2.538M12 4v10M12 18v2M16 7a2 2 0 1 0 4 0a2 2 0 0 0 -4 0M18 4v1M18 9v3M19 22v-6M22 19l-3 -3l-3 3" />
</svg>
